X: 27226
T: Miss Sarah Drummond Of Perth
R: strathspey
M: 4/4
K: Amixolydian
|:A2 e>d B<d e2|d<g B<g d<g B<G|
A2 e>d B<d e>f|(3gfe g>B A2 A>e:|
|:a2 e<a c<a e>f|g2 d<g B<g d>e|
a2 e<a c<a e>f|(3gfe g>B A2 A>e:|

